src/render/svg/rabbitmq.svg

<?xml version="1.0" standalone="no"?><!DOCTYPE svg PUBLIC "-//W3C//DTD SVG 1.1//EN"
  "http://www.w3.org/Graphics/SVG/1.1/DTD/svg11.dtd">
<svg class="icon" viewBox="0 0 1024 1024" version="1.1" xmlns="http://www.w3.org/2000/svg" p-id="5575"
     width="256" height="256" xmlns:xlink="http://www.w3.org/1999/xlink">
  <path
    d="M947.2 415.530667h-302.506667c-24.192-2.901333-42.624-24.192-42.624-49.28v-317.44A48.768 48.768 0 0 0 553.301333 0h-105.856c-27.093333 0-48.853333 21.973333-48.853333 48.853333v320.768c-1.322667 24.192-21.290667 43.690667-45.269333 45.909334H274.090667A49.450667 49.450667 0 0 1 231.253333 369.578667V48.853333C231.253333 21.76 209.28 0 182.442667 0H76.544C49.493333 0 27.733333 21.973333 27.733333 48.853333v926.293334C27.733333 1002.24 49.706667 1024 76.544 1024h870.869333c27.093333 0 48.810667-21.973333 48.810667-48.853333V464.384A48.981333 48.981333 0 0 0 947.2 415.530667z m-139.349333 350.293333c0 27.093333-21.973333 48.853333-48.810667 48.853333h-105.856a48.810667 48.810667 0 0 1-48.810667-48.853333v-99.882667c0-27.093333 21.973333-48.853333 48.810667-48.853333h105.856c27.093333 0 48.810667 21.973333 48.810667 48.853333v99.882667z"
   ></path>
</svg>

<svg xmlns="http://www.w3.org/2000/svg" width="256" height="256" class="icon" viewBox="0 0 1024 1024">
    <path d="M947.2 415.53067H644.69333c-24.192-2.90134-42.624-24.192-42.624-49.28v-317.44A48.768 48.768 0 0 0 553.30133 0h-105.856C420.352 0 398.592 21.97333 398.592 48.85333v320.768c-1.32267 24.192-21.29067 43.69067-45.26933 45.90934h-79.232a49.4507 49.4507 0 0 1-42.83734-45.952V48.85333C231.25333 21.76 209.28 0 182.44267 0H76.544C49.49333 0 27.73333 21.97333 27.73333 48.85333v926.29334C27.73333 1002.24 49.70667 1024 76.544 1024h870.86933c27.09334 0 48.81067-21.97333 48.81067-48.85333V464.384a48.98133 48.98133 0 0 0-49.024-48.85333M807.85067 765.824c0 27.09333-21.97334 48.85333-48.81067 48.85333H653.184a48.81067 48.81067 0 0 1-48.81067-48.85333v-99.88267c0-27.09333 21.97334-48.85333 48.81067-48.85333H759.04c27.09333 0 48.81067 21.97333 48.81067 48.85333z"/>
</svg>
